packages/assets/static/images/icons/camera.svg

<svg width="24" height="24" viewBox="0 0 24 24" xmlns="http://www.w3.org/2000/svg">
<path d="M19.4999 5.25049H17.1018L15.9374 3.50111C15.8345 3.34687 15.6951 3.22046 15.5315 3.13312C15.368 3.04577 15.1854 3.00021 14.9999 3.00049H8.99994C8.81452 3.00021 8.63191 3.04577 8.46834 3.13312C8.30478 3.22046 8.16535 3.34687 8.06244 3.50111L6.89713 5.25049H4.49994C3.80375 5.25049 3.13607 5.52705 2.64378 6.01933C2.1515 6.51162 1.87494 7.1793 1.87494 7.87549V18.3755C1.87494 19.0717 2.1515 19.7394 2.64378 20.2316C3.13607 20.7239 3.80375 21.0005 4.49994 21.0005H19.4999C19.8447 21.0005 20.186 20.9326 20.5045 20.8007C20.823 20.6688 21.1123 20.4754 21.3561 20.2316C21.5998 19.9879 21.7932 19.6985 21.9251 19.38C22.057 19.0616 22.1249 18.7202 22.1249 18.3755V7.87549C22.1249 7.53077 22.057 7.18943 21.9251 6.87095C21.7932 6.55247 21.5998 6.26309 21.3561 6.01933C21.1123 5.77558 20.823 5.58222 20.5045 5.45031C20.186 5.31839 19.8447 5.25049 19.4999 5.25049ZM19.8749 18.3755C19.8749 18.4749 19.8354 18.5703 19.7651 18.6407C19.6948 18.711 19.5994 18.7505 19.4999 18.7505H4.49994C4.40048 18.7505 4.3051 18.711 4.23477 18.6407C4.16445 18.5703 4.12494 18.4749 4.12494 18.3755V7.87549C4.12494 7.77603 4.16445 7.68065 4.23477 7.61032C4.3051 7.54 4.40048 7.50049 4.49994 7.50049H7.49994C7.68536 7.50076 7.86797 7.4552 8.03153 7.36786C8.19509 7.28052 8.33453 7.15411 8.43744 6.99986L9.60181 5.25049H14.3971L15.5624 6.99986C15.6653 7.15411 15.8048 7.28052 15.9683 7.36786C16.1319 7.4552 16.3145 7.50076 16.4999 7.50049H19.4999C19.5994 7.50049 19.6948 7.54 19.7651 7.61032C19.8354 7.68065 19.8749 7.77603 19.8749 7.87549V18.3755ZM11.9999 8.25049C11.1099 8.25049 10.2399 8.51441 9.49987 9.00888C8.75985 9.50334 8.18308 10.2061 7.84248 11.0284C7.50189 11.8507 7.41277 12.7555 7.58641 13.6284C7.76004 14.5013 8.18862 15.3031 8.81796 15.9325C9.44729 16.5618 10.2491 16.9904 11.122 17.164C11.9949 17.3377 12.8997 17.2485 13.722 16.9079C14.5443 16.5674 15.2471 15.9906 15.7416 15.2506C16.236 14.5105 16.4999 13.6405 16.4999 12.7505C16.4987 11.5574 16.0242 10.4135 15.1805 9.56988C14.3369 8.72623 13.193 8.25173 11.9999 8.25049ZM11.9999 15.0005C11.5549 15.0005 11.1199 14.8685 10.7499 14.6213C10.3799 14.3741 10.0915 14.0227 9.92121 13.6115C9.75091 13.2004 9.70636 12.748 9.79317 12.3115C9.87999 11.8751 10.0943 11.4742 10.4089 11.1595C10.7236 10.8448 11.1245 10.6305 11.561 10.5437C11.9974 10.4569 12.4498 10.5015 12.861 10.6718C13.2721 10.8421 13.6235 11.1304 13.8707 11.5005C14.118 11.8705 14.2499 12.3055 14.2499 12.7505C14.2499 13.3472 14.0129 13.9195 13.5909 14.3415C13.169 14.7634 12.5967 15.0005 11.9999 15.0005Z"/>
</svg>

<svg viewBox="0 0 24 24" xmlns="http://www.w3.org/2000/svg" aria-hidden="true" fill="currentColor" height="24px" width="24px"><path d="M19.5 5.25h-2.398l-1.165-1.749a1.13 1.13 0 0 0-.937-.5H9a1.13 1.13 0 0 0-.938.5l-1.165 1.75H4.5a2.625 2.625 0 0 0-2.625 2.624v10.5A2.625 2.625 0 0 0 4.5 21h15a2.625 2.625 0 0 0 2.625-2.625v-10.5A2.625 2.625 0 0 0 19.5 5.25m.375 13.125a.375.375 0 0 1-.375.375h-15a.375.375 0 0 1-.375-.375v-10.5A.375.375 0 0 1 4.5 7.5h3a1.13 1.13 0 0 0 .937-.5l1.165-1.75h4.795L15.562 7a1.13 1.13 0 0 0 .938.5h3a.375.375 0 0 1 .375.375zM12 8.25a4.5 4.5 0 1 0 0 9 4.5 4.5 0 0 0 0-9M12 15a2.25 2.25 0 1 1 0-4.5 2.25 2.25 0 0 1 0 4.5"/></svg>
